austria/municipalities/70604.svg

<?xml version="1.0" encoding="UTF-8"?>
<!DOCTYPE svg PUBLIC "-//W3C//DTD SVG 1.1//EN" "http://www.w3.org/Graphics/SVG/1.1/DTD/svg11.dtd">
<svg xmlns="http://www.w3.org/2000/svg" version="1.1" width="166px" height="192px" style="shape-rendering:geometricPrecision; text-rendering:geometricPrecision; image-rendering:optimizeQuality; fill-rule:evenodd; clip-rule:evenodd" xmlns:xlink="http://www.w3.org/1999/xlink">
<g><path style="opacity:1" fill="#0e0e0e" d="M -0.5,-0.5 C 54.8333,-0.5 110.167,-0.5 165.5,-0.5C 165.5,39.1667 165.5,78.8333 165.5,118.5C 157.367,159.633 132.7,183.966 91.5,191.5C 84.8333,191.5 78.1667,191.5 71.5,191.5C 30.4766,182.81 6.47657,157.81 -0.5,116.5C -0.5,77.5 -0.5,38.5 -0.5,-0.5 Z"/></g>
<g><path style="opacity:1" fill="#fcfcfc" d="M 98.5,34.5 C 97.5021,60.9948 97.1688,87.6614 97.5,114.5C 94.5,114.5 91.5,114.5 88.5,114.5C 88.5,110.167 88.5,105.833 88.5,101.5C 84.6286,101.185 80.9619,101.518 77.5,102.5C 76.5166,106.298 76.1832,110.298 76.5,114.5C 73.5,114.5 70.5,114.5 67.5,114.5C 67.8312,87.6614 67.4979,60.9948 66.5,34.5C 52.5,34.5 38.5,34.5 24.5,34.5C 24.5,61.1667 24.5,87.8333 24.5,114.5C 22.1667,114.5 19.8333,114.5 17.5,114.5C 17.5,110.5 17.5,106.5 17.5,102.5C 14.1667,102.5 10.8333,102.5 7.5,102.5C 7.5,106.5 7.5,110.5 7.5,114.5C 6.16667,114.5 4.83333,114.5 3.5,114.5C 3.5,77.5 3.5,40.5 3.5,3.5C 56.1667,3.5 108.833,3.5 161.5,3.5C 161.5,40.5 161.5,77.5 161.5,114.5C 160.167,114.5 158.833,114.5 157.5,114.5C 157.5,110.5 157.5,106.5 157.5,102.5C 154.167,102.5 150.833,102.5 147.5,102.5C 147.5,106.5 147.5,110.5 147.5,114.5C 145.167,114.5 142.833,114.5 140.5,114.5C 140.5,87.8333 140.5,61.1667 140.5,34.5C 126.5,34.5 112.5,34.5 98.5,34.5 Z"/></g>
<g><path style="opacity:1" fill="#43403e" d="M 76.5,7.5 C 72.5,7.5 68.5,7.5 64.5,7.5C 64.8168,11.7016 64.4834,15.7016 63.5,19.5C 63.5,15.1667 63.5,10.8333 63.5,6.5C 68.0323,6.18178 72.3656,6.51511 76.5,7.5 Z"/></g>
<g><path style="opacity:1" fill="#141417" d="M 63.5,19.5 C 64.4834,15.7016 64.8168,11.7016 64.5,7.5C 68.5,7.5 72.5,7.5 76.5,7.5C 76.5,16.1667 76.5,24.8333 76.5,33.5C 56.1667,33.5 35.8333,33.5 15.5,33.5C 15.5,24.5 15.5,15.5 15.5,6.5C 19.5,6.5 23.5,6.5 27.5,6.5C 27.5,10.8333 27.5,15.1667 27.5,19.5C 31.5,19.5 35.5,19.5 39.5,19.5C 39.5,15.1667 39.5,10.8333 39.5,6.5C 43.5,6.5 47.5,6.5 51.5,6.5C 51.5,10.8333 51.5,15.1667 51.5,19.5C 55.5,19.5 59.5,19.5 63.5,19.5 Z"/></g>
<g><path style="opacity:1" fill="#253166" d="M 16.5,8.5 C 19.8333,8.5 23.1667,8.5 26.5,8.5C 26.5,12.8333 26.5,17.1667 26.5,21.5C 31.5,21.5 36.5,21.5 41.5,21.5C 41.5,17.1667 41.5,12.8333 41.5,8.5C 44.5,8.5 47.5,8.5 50.5,8.5C 50.5,12.8333 50.5,17.1667 50.5,21.5C 55.5,21.5 60.5,21.5 65.5,21.5C 65.5,17.1667 65.5,12.8333 65.5,8.5C 68.5,8.5 71.5,8.5 74.5,8.5C 74.5,16.1667 74.5,23.8333 74.5,31.5C 55.1667,31.5 35.8333,31.5 16.5,31.5C 16.5,23.8333 16.5,16.1667 16.5,8.5 Z"/></g>
<g><path style="opacity:1" fill="#4f4c4a" d="M 101.5,7.5 C 97.5,7.5 93.5,7.5 89.5,7.5C 89.5,15.8333 89.5,24.1667 89.5,32.5C 109.5,32.5 129.5,32.5 149.5,32.5C 149.5,23.8333 149.5,15.1667 149.5,6.5C 150.493,15.3178 150.827,24.3178 150.5,33.5C 129.833,33.5 109.167,33.5 88.5,33.5C 88.5,24.5 88.5,15.5 88.5,6.5C 93.0323,6.18178 97.3656,6.51511 101.5,7.5 Z"/></g>
<g><path style="opacity:1" fill="#0b0c0f" d="M 149.5,6.5 C 149.5,15.1667 149.5,23.8333 149.5,32.5C 129.5,32.5 109.5,32.5 89.5,32.5C 89.5,24.1667 89.5,15.8333 89.5,7.5C 93.5,7.5 97.5,7.5 101.5,7.5C 101.5,11.5 101.5,15.5 101.5,19.5C 105.5,19.5 109.5,19.5 113.5,19.5C 113.5,15.1667 113.5,10.8333 113.5,6.5C 117.5,6.5 121.5,6.5 125.5,6.5C 125.5,10.8333 125.5,15.1667 125.5,19.5C 129.5,19.5 133.5,19.5 137.5,19.5C 137.5,15.1667 137.5,10.8333 137.5,6.5C 141.5,6.5 145.5,6.5 149.5,6.5 Z"/></g>
<g><path style="opacity:1" fill="#253166" d="M 90.5,8.5 C 93.5,8.5 96.5,8.5 99.5,8.5C 99.5,12.8333 99.5,17.1667 99.5,21.5C 104.5,21.5 109.5,21.5 114.5,21.5C 114.5,17.1667 114.5,12.8333 114.5,8.5C 117.833,8.5 121.167,8.5 124.5,8.5C 124.5,12.8333 124.5,17.1667 124.5,21.5C 129.167,21.5 133.833,21.5 138.5,21.5C 138.5,17.1667 138.5,12.8333 138.5,8.5C 141.833,8.5 145.167,8.5 148.5,8.5C 148.5,16.1667 148.5,23.8333 148.5,31.5C 129.167,31.5 109.833,31.5 90.5,31.5C 90.5,23.8333 90.5,16.1667 90.5,8.5 Z"/></g>
<g><path style="opacity:1" fill="#253167" d="M 66.5,36.5 C 66.5,63.1667 66.5,89.8333 66.5,116.5C 70.5,116.5 74.5,116.5 78.5,116.5C 78.5,112.167 78.5,107.833 78.5,103.5C 81.1667,103.5 83.8333,103.5 86.5,103.5C 86.5,107.833 86.5,112.167 86.5,116.5C 90.8333,116.5 95.1667,116.5 99.5,116.5C 99.5,89.8333 99.5,63.1667 99.5,36.5C 112.656,35.5044 125.99,35.1711 139.5,35.5C 139.5,62.5 139.5,89.5 139.5,116.5C 142.5,116.5 145.5,116.5 148.5,116.5C 148.5,112.167 148.5,107.833 148.5,103.5C 151.167,103.5 153.833,103.5 156.5,103.5C 156.5,107.833 156.5,112.167 156.5,116.5C 158.288,116.215 159.955,116.548 161.5,117.5C 155.393,153.569 134.726,176.402 99.5,186C 58.8131,191.907 28.9797,176.741 10,140.5C 7.26602,132.999 5.09936,125.332 3.5,117.5C 5.04533,116.548 6.71199,116.215 8.5,116.5C 8.5,112.167 8.5,107.833 8.5,103.5C 11.1667,103.5 13.8333,103.5 16.5,103.5C 16.5,107.833 16.5,112.167 16.5,116.5C 19.5,116.5 22.5,116.5 25.5,116.5C 25.5,89.5 25.5,62.5 25.5,35.5C 39.2456,35.1853 52.9123,35.5187 66.5,36.5 Z"/></g>
<g><path style="opacity:1" fill="#111113" d="M 43.5,86.5 C 46.695,85.9607 49.195,86.9607 51,89.5C 51.4992,94.1548 51.6658,98.8215 51.5,103.5C 47.5,103.5 43.5,103.5 39.5,103.5C 39.3343,99.1539 39.501,94.8206 40,90.5C 40.6897,88.6498 41.8564,87.3164 43.5,86.5 Z"/></g>
<g><path style="opacity:1" fill="#fcfcfc" d="M 42.5,88.5 C 45.3646,88.0548 47.8646,88.7215 50,90.5C 50.4986,94.1516 50.6653,97.8183 50.5,101.5C 47.5,101.5 44.5,101.5 41.5,101.5C 41.2941,97.1018 41.6274,92.7685 42.5,88.5 Z"/></g>
<g><path style="opacity:1" fill="#121214" d="M 116.5,86.5 C 119.97,85.8748 122.804,86.8748 125,89.5C 125.499,94.1548 125.666,98.8215 125.5,103.5C 121.5,103.5 117.5,103.5 113.5,103.5C 113.334,98.8215 113.501,94.1548 114,89.5C 115.045,88.6266 115.878,87.6266 116.5,86.5 Z"/></g>
<g><path style="opacity:1" fill="#fdfdfd" d="M 123.5,101.5 C 120.833,101.5 118.167,101.5 115.5,101.5C 115.5,98.1667 115.5,94.8333 115.5,91.5C 115.414,90.5041 115.748,89.6708 116.5,89C 118.769,88.2419 120.936,88.4086 123,89.5C 123.499,93.4862 123.666,97.4862 123.5,101.5 Z"/></g>
<g><path style="opacity:1" fill="#585552" d="M 115.5,91.5 C 115.5,94.8333 115.5,98.1667 115.5,101.5C 118.167,101.5 120.833,101.5 123.5,101.5C 120.713,102.477 117.713,102.81 114.5,102.5C 114.185,98.6286 114.518,94.9619 115.5,91.5 Z"/></g>
<g><path style="opacity:1" fill="#24252b" d="M 66.5,34.5 C 67.4979,60.9948 67.8312,87.6614 67.5,114.5C 70.6248,115.479 73.9581,115.813 77.5,115.5C 77.5,111.167 77.5,106.833 77.5,102.5C 80.8333,102.5 84.1667,102.5 87.5,102.5C 87.1832,106.702 87.5166,110.702 88.5,114.5C 91.5,114.5 94.5,114.5 97.5,114.5C 97.1688,87.6614 97.5021,60.9948 98.5,34.5C 98.3284,35.4916 98.6618,36.1583 99.5,36.5C 99.5,63.1667 99.5,89.8333 99.5,116.5C 95.1667,116.5 90.8333,116.5 86.5,116.5C 86.5,112.167 86.5,107.833 86.5,103.5C 83.8333,103.5 81.1667,103.5 78.5,103.5C 78.5,107.833 78.5,112.167 78.5,116.5C 74.5,116.5 70.5,116.5 66.5,116.5C 66.5,89.8333 66.5,63.1667 66.5,36.5C 66.5,35.8333 66.5,35.1667 66.5,34.5 Z"/></g>
<g><path style="opacity:1" fill="#5a5754" d="M 77.5,102.5 C 77.5,106.833 77.5,111.167 77.5,115.5C 73.9581,115.813 70.6248,115.479 67.5,114.5C 70.5,114.5 73.5,114.5 76.5,114.5C 76.1832,110.298 76.5166,106.298 77.5,102.5 Z"/></g>
<g><path style="opacity:1" fill="#5a5755" d="M 77.5,102.5 C 80.9619,101.518 84.6286,101.185 88.5,101.5C 88.5,105.833 88.5,110.167 88.5,114.5C 87.5166,110.702 87.1832,106.702 87.5,102.5C 84.1667,102.5 80.8333,102.5 77.5,102.5 Z"/></g>
<g><path style="opacity:1" fill="#fdfdfd" d="M -0.5,116.5 C 6.47657,157.81 30.4766,182.81 71.5,191.5C 47.5,191.5 23.5,191.5 -0.5,191.5C -0.5,166.5 -0.5,141.5 -0.5,116.5 Z"/></g>
<g><path style="opacity:1" fill="#fdfcfc" d="M 165.5,118.5 C 165.5,142.833 165.5,167.167 165.5,191.5C 140.833,191.5 116.167,191.5 91.5,191.5C 132.7,183.966 157.367,159.633 165.5,118.5 Z"/></g>
</svg>

<svg xmlns="http://www.w3.org/2000/svg" width="166" height="192" style="shape-rendering:geometricPrecision;text-rendering:geometricPrecision;image-rendering:optimizeQuality;fill-rule:evenodd;clip-rule:evenodd"><path style="opacity:1" fill="#0e0e0e" d="M-.5-.5h166v119c-8.133 41.133-32.8 65.466-74 73h-20c-41.023-8.69-65.023-33.69-72-75V-.5z"/><path style="opacity:1" fill="#fcfcfc" d="M98.5 34.5a1600.533 1600.533 0 0 0-1 80h-9v-13c-3.871-.315-7.538.018-11 1-.983 3.798-1.317 7.798-1 12h-9c.331-26.839-.002-53.505-1-80h-42v80h-7v-12h-10v12h-4V3.5h158v111h-4v-12h-10v12h-7v-80h-42z"/><path style="opacity:1" fill="#43403e" d="M76.5 7.5h-12c.317 4.202-.017 8.202-1 12v-13c4.532-.318 8.866.015 13 1z"/><path style="opacity:1" fill="#141417" d="M63.5 19.5c.983-3.798 1.317-7.798 1-12h12v26h-61v-27h12v13h12v-13h12v13h12z"/><path style="opacity:1" fill="#253166" d="M16.5 8.5h10v13h15v-13h9v13h15v-13h9v23h-58v-23z"/><path style="opacity:1" fill="#4f4c4a" d="M101.5 7.5h-12v25h60v-26c.993 8.818 1.327 17.818 1 27h-62v-27c4.532-.318 8.866.015 13 1z"/><path style="opacity:1" fill="#0b0c0f" d="M149.5 6.5v26h-60v-25h12v12h12v-13h12v13h12v-13h12z"/><path style="opacity:1" fill="#253166" d="M90.5 8.5h9v13h15v-13h10v13h14v-13h10v23h-58v-23z"/><path style="opacity:1" fill="#253167" d="M66.5 36.5v80h12v-13h8v13h13v-80a400.606 400.606 0 0 1 40-1v81h9v-13h8v13c1.788-.285 3.455.048 5 1-6.107 36.069-26.774 58.902-62 68.5-40.687 5.907-70.52-9.259-89.5-45.5a161.336 161.336 0 0 1-6.5-23c1.545-.952 3.212-1.285 5-1v-13h8v13h9v-81a431.701 431.701 0 0 1 41 1z"/><path style="opacity:1" fill="#111113" d="M43.5 86.5c3.195-.54 5.695.46 7.5 3 .5 4.655.666 9.322.5 14h-12c-.166-4.346.001-8.68.5-13 .69-1.85 1.856-3.184 3.5-4z"/><path style="opacity:1" fill="#fcfcfc" d="M42.5 88.5c2.865-.445 5.365.222 7.5 2a60.94 60.94 0 0 1 .5 11h-9a52.417 52.417 0 0 1 1-13z"/><path style="opacity:1" fill="#121214" d="M116.5 86.5c3.47-.625 6.304.375 8.5 3 .499 4.655.666 9.322.5 14h-12a98.433 98.433 0 0 1 .5-14 10.526 10.526 0 0 0 2.5-3z"/><path style="opacity:1" fill="#fdfdfd" d="M123.5 101.5h-8v-10c-.086-.996.248-1.83 1-2.5 2.269-.758 4.436-.591 6.5.5.499 3.986.666 7.986.5 12z"/><path style="opacity:1" fill="#585552" d="M115.5 91.5v10h8c-2.787.977-5.787 1.31-9 1-.315-3.871.018-7.538 1-11z"/><path style="opacity:1" fill="#24252b" d="M66.5 34.5a1600.533 1600.533 0 0 1 1 80c3.125.979 6.458 1.313 10 1v-13h10c-.317 4.202.017 8.202 1 12h9c-.331-26.839.002-53.505 1-80-.172.992.162 1.658 1 2v80h-13v-13h-8v13h-12v-82z"/><path style="opacity:1" fill="#5a5754" d="M77.5 102.5v13c-3.542.313-6.875-.021-10-1h9c-.317-4.202.017-8.202 1-12z"/><path style="opacity:1" fill="#5a5755" d="M77.5 102.5c3.462-.982 7.129-1.315 11-1v13c-.983-3.798-1.317-7.798-1-12h-10z"/><path style="opacity:1" fill="#fdfdfd" d="M-.5 116.5c6.977 41.31 30.977 66.31 72 75h-72v-75z"/><path style="opacity:1" fill="#fdfcfc" d="M165.5 118.5v73h-74c41.2-7.534 65.867-31.867 74-73z"/></svg>
